app/images/icons/search.svg

<svg width="16" height="16" viewBox="0 0 16 16" fill="none" xmlns="http://www.w3.org/2000/svg">
<path fill-rule="evenodd" clip-rule="evenodd" d="M12.6409 10.6979L15.7505 13.8074C16.0405 14.1006 16.0405 14.5747 15.7474 14.8678L14.8647 15.7505C14.5747 16.0437 14.1006 16.0437 13.8074 15.7505L10.6979 12.6409C10.5575 12.5006 10.4795 12.3103 10.4795 12.1107V11.6023C9.37856 12.4632 7.99376 12.9747 6.48733 12.9747C2.9037 12.9747 0 10.071 0 6.48733C0 2.9037 2.9037 0 6.48733 0C10.071 0 12.9747 2.9037 12.9747 6.48733C12.9747 7.99376 12.4632 9.37856 11.6023 10.4795H12.1107C12.3103 10.4795 12.5006 10.5575 12.6409 10.6979ZM2.49513 6.48733C2.49513 8.69552 4.28226 10.4795 6.48733 10.4795C8.69552 10.4795 10.4795 8.6924 10.4795 6.48733C10.4795 4.27914 8.6924 2.49513 6.48733 2.49513C4.27914 2.49513 2.49513 4.28226 2.49513 6.48733Z" fill="#262626"/>
</svg>

<svg width="16" height="16" fill="none" xmlns="http://www.w3.org/2000/svg"><path fill-rule="evenodd" clip-rule="evenodd" d="M12.64 10.698l3.11 3.11c.29.293.29.767-.003 1.06l-.882.883a.745.745 0 01-1.058 0l-3.11-3.11a.748.748 0 01-.217-.53v-.509a6.455 6.455 0 01-3.993 1.373A6.486 6.486 0 010 6.487 6.486 6.486 0 016.487 0a6.486 6.486 0 016.488 6.487 6.455 6.455 0 01-1.373 3.992h.509c.2 0 .39.079.53.219zM2.496 6.488a3.99 3.99 0 003.992 3.991 3.99 3.99 0 003.992-3.992 3.99 3.99 0 00-3.992-3.992 3.99 3.99 0 00-3.992 3.992z" fill="#262626"/></svg>
